svg/eaton_tagline.svg

<svg width="24" height="8" viewBox="0 0 24 8" xmlns="http://www.w3.org/2000/svg">
<path d="M5.75857 0.932063L6.18856 2.48383H5.29654L5.75857 0.932063ZM4.97417 3.56907L4.58173 4.85554H6.87534L6.50542 3.56907L4.97417 3.56907ZM10.9595 0H6.55698V1.38158H7.94606V4.85554H10.1811C10.0425 4.76994 9.09487 4.01758 9.09487 2.61248C9.09737 1.44415 9.80318 0.300343 10.9595 0ZM11.7224 3.61062C12.2415 3.61062 12.6589 3.17963 12.6589 2.6345C12.6589 2.08938 12.268 1.60283 11.7409 1.60283C11.2138 1.60283 10.7993 2.09539 10.7993 2.63651C10.7993 3.17763 11.1893 3.61262 11.7244 3.61262L11.7224 3.61062ZM16.3396 3.05348L15.4456 0H13.158V4.85554H14.5871V1.81307H14.5971L15.4827 4.85554H17.7898V0H16.3486V3.05348H16.3396ZM2.76916 4.85554L3.18163 3.49399H1.65038V3.08352H3.30727L3.70022 1.77853H1.65038V1.38358H3.81435L4.23183 0H0V4.85554H2.76916Z"/>
<path fill-rule="evenodd" clip-rule="evenodd" d="M20.4881 7.22625H20.4921L20.4751 7.34338H20.5822C20.587 7.28101 20.5966 7.2191 20.6108 7.15817L20.8515 6.00235H20.7404L20.6343 6.49892H20.6313C20.6107 6.4643 20.5814 6.43575 20.5462 6.41614C20.511 6.39654 20.4713 6.38658 20.4311 6.38729C20.1432 6.38729 20.0782 6.69314 20.0401 6.87334C19.9941 7.09209 19.9515 7.3614 20.2223 7.3614C20.2741 7.36113 20.3251 7.34877 20.3712 7.3253C20.4174 7.30184 20.4574 7.26792 20.4881 7.22625ZM20.5777 6.79375L20.5422 6.96044L20.5432 6.96044C20.4951 7.1887 20.3765 7.2743 20.2699 7.2743C20.1492 7.2743 20.0752 7.22925 20.1492 6.87885L20.1496 6.87709C20.1965 6.65913 20.2354 6.47839 20.4351 6.47839C20.6431 6.47839 20.5899 6.73523 20.5779 6.79278L20.5777 6.79375ZM8.08238 7.34441L8.28261 6.40835H8.39323L8.193 7.34441H8.08238ZM8.32415 6.14655L8.35369 6.00589H8.49134L8.46081 6.14655H8.32415ZM4.18448 6.00684H4.5524C4.66353 6.00684 4.84374 6.02136 4.77766 6.33121C4.7206 6.60002 4.60797 6.72216 4.3772 6.72216H4.15145L4.01879 7.34537H3.89966L4.18448 6.00684ZM4.17197 6.62204H4.39222C4.51636 6.62204 4.60897 6.56297 4.65352 6.35323C4.70358 6.12497 4.60747 6.10645 4.50034 6.10645H4.28209L4.17197 6.62204ZM4.75869 6.97699L4.80874 6.75474C4.83427 6.63611 4.88833 6.38932 5.2092 6.38932C5.53007 6.38932 5.47951 6.63611 5.45448 6.75474L5.40693 6.97699C5.35687 7.22077 5.24174 7.36344 5.00196 7.36344C4.76219 7.36344 4.70713 7.22077 4.75869 6.97699ZM5.23423 7.15019C5.27016 7.0615 5.29716 6.96943 5.31482 6.87538C5.37339 6.59906 5.37139 6.47843 5.18768 6.47843C5.00397 6.47843 4.95041 6.59906 4.89234 6.87538C4.87069 6.96547 4.85845 7.05757 4.8558 7.15019L4.85685 7.15631C4.86171 7.18674 4.87572 7.27433 5.01898 7.27433C5.06304 7.27677 5.10685 7.26633 5.14508 7.24428C5.1833 7.22224 5.21428 7.18955 5.23423 7.15019V7.15019ZM5.74082 6.40728H5.62268L5.68075 7.34335H5.82041L6.18682 6.54244H6.19083L6.22637 7.34335H6.36553L6.82255 6.40728H6.71142L6.32748 7.22722H6.32348L6.28994 6.40728H6.15279L5.78036 7.22722H5.77636L5.74082 6.40728ZM6.92963 6.89935L6.91461 6.97243C6.88658 7.10158 6.88508 7.27278 7.06128 7.27278C7.12224 7.27425 7.18159 7.25306 7.22782 7.21329C7.27406 7.17353 7.3039 7.11803 7.31157 7.05753H7.4282C7.36763 7.28379 7.22797 7.36188 7.04076 7.36188C6.87957 7.36188 6.7314 7.2963 6.79047 7.01148L6.84053 6.78122C6.8986 6.51091 7.03775 6.38626 7.24749 6.38626C7.57 6.38626 7.52107 6.61679 7.46221 6.89411L7.46174 6.89635L6.92963 6.89935ZM7.37163 6.81025C7.41568 6.60301 7.40918 6.47837 7.23047 6.47837C7.05177 6.47837 6.9927 6.60301 6.94815 6.81025H7.37163ZM7.86975 6.53392H7.86624L7.89328 6.40628H7.78215L7.58192 7.34234H7.69405L7.82219 6.74166C7.83383 6.66941 7.87267 6.60437 7.93076 6.55987C7.98885 6.51537 8.06177 6.4948 8.13455 6.50238L8.15858 6.38926C8.10256 6.38958 8.04737 6.4028 7.99728 6.42789C7.9472 6.45297 7.90356 6.48926 7.86975 6.53392ZM8.44691 7.34434H8.55853L8.68618 6.75667C8.73023 6.54744 8.84686 6.47836 8.94697 6.47836C9.07762 6.47836 9.09765 6.58097 9.07462 6.6901L8.93546 7.34434H9.04759L9.18574 6.68459C9.21127 6.56195 9.22479 6.38926 8.99202 6.38926C8.94252 6.39223 8.8942 6.40568 8.85028 6.42872C8.80636 6.45176 8.76783 6.48387 8.73724 6.52291H8.73373L8.75776 6.40828H8.64713L8.44691 7.34434ZM9.99054 6.4073H10.0987L10.0793 6.48709C10.069 6.52949 10.0615 6.56018 10.0546 6.59151L9.88642 7.37991C9.84337 7.58565 9.75427 7.70829 9.48596 7.70829C9.2527 7.70829 9.24118 7.5426 9.26872 7.44849H9.37984C9.34931 7.55561 9.41538 7.61919 9.52 7.61919C9.72415 7.61919 9.74628 7.51479 9.79866 7.26768L9.80833 7.22223H9.80483C9.77413 7.2585 9.73574 7.28746 9.69245 7.30703C9.64915 7.3266 9.60204 7.33628 9.55454 7.33536C9.28523 7.33536 9.31577 7.1031 9.36032 6.89536C9.40384 6.69056 9.40981 6.67748 9.44876 6.59221L9.45593 6.5765C9.48453 6.52128 9.52756 6.47485 9.58045 6.44215C9.63333 6.40945 9.6941 6.3917 9.75627 6.39079C9.79986 6.38768 9.84326 6.39891 9.87986 6.42277C9.91647 6.44663 9.94426 6.48181 9.95901 6.52294V6.52644L9.99054 6.4073ZM9.48196 6.85782L9.48172 6.85894C9.44025 7.05279 9.39876 7.24676 9.6011 7.24676C9.63913 7.2462 9.67645 7.23632 9.70979 7.218C9.74312 7.19967 9.77146 7.17346 9.79231 7.14164C9.83586 7.06906 9.85238 7.02651 9.91095 6.7522C9.952 6.55497 9.86089 6.48089 9.75828 6.48089C9.56556 6.47839 9.51149 6.71566 9.48196 6.85782ZM10.8201 6.00684L10.5353 7.34437L10.9167 7.34537C11.141 7.34537 11.2856 7.21422 11.3357 6.97344C11.3707 6.80475 11.3497 6.68712 11.1805 6.65057V6.64657C11.3592 6.60002 11.4093 6.48889 11.4433 6.32721C11.4934 6.09144 11.4028 6.00684 11.193 6.00684H10.8201ZM10.8641 7.24425H10.6759L10.7911 6.70013H11.0318C11.2361 6.70013 11.2366 6.86232 11.2115 6.98095C11.1695 7.17717 11.0609 7.24425 10.8641 7.24425ZM11.3222 6.33171C11.2906 6.48338 11.211 6.60052 11.0403 6.60052H10.8116L10.9177 6.10495H11.153C11.2481 6.10495 11.3687 6.10896 11.3222 6.33171ZM12.2372 6.40728L12.037 7.34335H11.9409L11.9629 7.23973H11.9589C11.9268 7.27715 11.8873 7.30747 11.8428 7.32876C11.7983 7.35005 11.7499 7.36184 11.7006 7.36337C11.5069 7.36337 11.4829 7.22221 11.5159 7.07054L11.6561 6.40829H11.7677L11.631 7.05152L11.6302 7.0558C11.6223 7.09413 11.5854 7.27427 11.7397 7.27427C11.8898 7.27427 11.9734 7.13361 11.9874 7.06854L12.1276 6.40829L12.2372 6.40728ZM12.2847 7.06653C12.2402 7.26325 12.3013 7.36337 12.5015 7.36337C12.6777 7.36337 12.7983 7.27427 12.8379 7.09806C12.8738 6.93 12.7653 6.87022 12.6645 6.81477C12.5775 6.76683 12.4963 6.72214 12.5195 6.61351C12.5282 6.57469 12.5501 6.54006 12.5814 6.51544C12.6126 6.49083 12.6514 6.47773 12.6912 6.47836C12.8163 6.47836 12.8354 6.54193 12.8163 6.66006H12.9255C12.9555 6.5174 12.924 6.38926 12.7383 6.38926C12.5746 6.38926 12.4434 6.45083 12.4064 6.62302C12.3717 6.78682 12.4766 6.84635 12.5756 6.90251C12.6635 6.95242 12.7468 6.99967 12.7232 7.11508C12.7177 7.16215 12.6945 7.20537 12.6584 7.23603C12.6223 7.26668 12.5759 7.2825 12.5285 7.28027C12.3859 7.28027 12.3738 7.19467 12.4014 7.06653H12.2847ZM12.9875 7.34441L13.1877 6.40835H13.2988L13.0986 7.34441H12.9875ZM13.2288 6.14655L13.2593 6.00589H13.3959L13.3664 6.14655H13.2288ZM13.3524 7.34434H13.4655L13.5917 6.75667C13.6367 6.54744 13.7529 6.47836 13.853 6.47836C13.9831 6.47836 14.0042 6.58097 13.9801 6.6901L13.842 7.34434H13.9531L14.0918 6.68459C14.1183 6.56195 14.1303 6.38926 13.8985 6.38926C13.849 6.39223 13.8007 6.40568 13.7568 6.42872C13.7129 6.45176 13.6743 6.48387 13.6437 6.52291H13.6402L13.6648 6.40828H13.5526L13.3524 7.34434ZM14.3805 6.89985L14.365 6.97243C14.3375 7.10158 14.3365 7.27278 14.5127 7.27278C14.5737 7.27448 14.6332 7.25336 14.6795 7.21356C14.7258 7.17375 14.7555 7.11812 14.763 7.05753H14.8811C14.8185 7.28379 14.6809 7.36188 14.4932 7.36188C14.3315 7.36188 14.1843 7.2963 14.2429 7.01148L14.2929 6.78172C14.3505 6.51091 14.4897 6.38626 14.6989 6.38626C15.0218 6.38626 14.9732 6.61803 14.9137 6.89685L14.3805 6.89985ZM14.8221 6.81025C14.8671 6.60301 14.8596 6.47837 14.6814 6.47837C14.5032 6.47837 14.4436 6.60301 14.3991 6.81025H14.8221ZM15.0423 7.06653C14.9988 7.26325 15.0588 7.36337 15.2591 7.36337C15.4338 7.36337 15.5549 7.27427 15.5904 7.09806C15.6264 6.93 15.518 6.87022 15.4174 6.81477C15.3304 6.76683 15.2494 6.72214 15.2726 6.61351C15.2812 6.57464 15.303 6.53996 15.3343 6.51533C15.3656 6.4907 15.4045 6.47764 15.4443 6.47836C15.5694 6.47836 15.5884 6.54193 15.5694 6.66006H15.678C15.7086 6.5174 15.6765 6.38926 15.4913 6.38926C15.3276 6.38926 15.196 6.45083 15.1599 6.62302C15.1247 6.78688 15.2296 6.84639 15.3286 6.90257C15.4165 6.95246 15.4998 6.99972 15.4763 7.11508C15.4709 7.1622 15.4478 7.20549 15.4116 7.23617C15.3754 7.26685 15.3289 7.28262 15.2816 7.28027C15.1384 7.28027 15.1269 7.19467 15.1544 7.06653H15.0423ZM15.9684 7.36337C15.7657 7.36337 15.7071 7.26325 15.7507 7.06653H15.8643C15.8368 7.19467 15.8488 7.28027 15.9915 7.28027C16.0388 7.28262 16.0853 7.26685 16.1215 7.23617C16.1576 7.20549 16.1808 7.1622 16.1862 7.11508C16.2097 6.9997 16.1265 6.95244 16.0386 6.90254C15.9397 6.84637 15.8348 6.78685 15.8698 6.62302C15.9064 6.45083 16.0375 6.38926 16.2017 6.38926C16.3869 6.38926 16.4189 6.5174 16.3884 6.66006H16.2788C16.2983 6.54193 16.2788 6.47836 16.1541 6.47836C16.1143 6.47764 16.0755 6.4907 16.0442 6.51533C16.0129 6.53996 15.9911 6.57464 15.9824 6.61351C15.9592 6.72218 16.0404 6.76687 16.1275 6.81483C16.2281 6.87026 16.3367 6.93007 16.3013 7.09806C16.2633 7.27427 16.1431 7.36337 15.9684 7.36337ZM17.7674 6.00684H17.6073L17.0837 7.18969H17.0792L17.0606 6.00684H16.934L16.971 7.34537H17.1212L17.6503 6.15501H17.6538L17.6698 7.34537H17.8255L18.4427 6.00684H18.3256L17.79 7.18068H17.7865L17.7674 6.00684ZM18.2966 6.97699L18.3466 6.75474C18.3716 6.63611 18.4267 6.38932 18.7471 6.38932C19.0674 6.38932 19.0174 6.63611 18.9924 6.75474L18.9453 6.97699C18.8927 7.22077 18.7791 7.36344 18.5403 7.36344C18.3016 7.36344 18.245 7.22077 18.2966 6.97699ZM18.7721 7.15019C18.8083 7.06158 18.8353 6.96949 18.8527 6.87538C18.9118 6.59906 18.9093 6.47843 18.7255 6.47843C18.5418 6.47843 18.4883 6.59906 18.4297 6.87538C18.4083 6.96552 18.3961 7.05759 18.3932 7.15019L18.3947 7.15774C18.4005 7.1894 18.4162 7.27433 18.5569 7.27433C18.6009 7.27677 18.6447 7.26633 18.6829 7.24428C18.7212 7.22224 18.7521 7.18954 18.7721 7.15019ZM19.3808 6.53392H19.3772L19.4053 6.40628H19.2942L19.0939 7.34234H19.2046L19.3332 6.74166C19.3449 6.66937 19.3839 6.60432 19.4421 6.55983C19.5002 6.51534 19.5732 6.49479 19.6461 6.50238L19.6701 6.38926C19.614 6.38947 19.5587 6.40263 19.5085 6.42773C19.4583 6.45282 19.4146 6.48916 19.3808 6.53392ZM19.6025 7.34437L19.8874 6.00684H19.9985L19.7137 7.34537L19.6025 7.34437ZM20.902 6.40728H21.0206L21.0562 7.22722H21.0612L21.4321 6.40728H21.5698L21.6033 7.22722H21.6068L21.9902 6.40728H22.1019L21.6448 7.34335H21.5062L21.4701 6.54244H21.4666L21.0992 7.34335H20.9611L20.902 6.40728ZM22.2426 6.4083L22.0424 7.34437H22.1535L22.3537 6.4083H22.2426ZM22.3127 6.00684L22.2836 6.1465L22.4198 6.1475L22.4503 6.00684H22.3127ZM22.9259 7.22625H22.9219C22.8912 7.26792 22.8512 7.30184 22.805 7.3253C22.7589 7.34877 22.7079 7.36113 22.6561 7.3614C22.3848 7.3614 22.4273 7.09209 22.4734 6.87384C22.5114 6.69314 22.5765 6.38729 22.8643 6.38729C22.905 6.38603 22.9453 6.39573 22.981 6.41536C23.0166 6.435 23.0464 6.46386 23.0671 6.49892H23.0706L23.1762 6.00235H23.2873L23.042 7.15366C23.0277 7.21453 23.0185 7.27648 23.0145 7.33887H22.9064L22.9259 7.22625ZM22.976 6.96044L23.011 6.79375L23.0113 6.7924C23.0234 6.73409 23.0764 6.47839 22.8683 6.47839C22.6695 6.47839 22.6306 6.6575 22.5835 6.87414L22.5825 6.87885C22.5089 7.22925 22.5825 7.2743 22.7031 7.2743C22.8098 7.2743 22.9279 7.1887 22.977 6.96044L22.976 6.96044ZM23.4089 6.97243L23.4239 6.89985L23.957 6.89685L23.9578 6.89332C24.016 6.61607 24.0643 6.38626 23.7428 6.38626C23.5325 6.38626 23.3929 6.51091 23.3353 6.78172L23.2852 7.01148C23.2267 7.2963 23.3743 7.36188 23.5355 7.36188C23.7227 7.36188 23.8614 7.28379 23.923 7.05753H23.8058C23.7982 7.11803 23.7683 7.17353 23.7221 7.21329C23.6759 7.25306 23.6165 7.27425 23.5556 7.27278C23.3799 7.27278 23.3809 7.10158 23.4089 6.97243ZM23.7247 6.47837C23.903 6.47837 23.91 6.60301 23.8659 6.81025H23.4424C23.487 6.60301 23.5465 6.47837 23.7247 6.47837Z"/>
</svg>

<svg width="24" height="8" viewBox="0 0 24 8" xmlns="http://www.w3.org/2000/svg"><path d="M5.759.932l.43 1.552h-.892L5.759.932zM4.974 3.57l-.392 1.287h2.293l-.37-1.287h-1.53zM10.96 0H6.557v1.382h1.39v3.474h2.234c-.138-.086-1.086-.838-1.086-2.244C9.097 1.444 9.803.3 10.959 0zm.762 3.61c.52 0 .937-.43.937-.975 0-.546-.391-1.032-.918-1.032s-.942.492-.942 1.034c0 .54.39.976.925.976l-.002-.002zm4.618-.557L15.446 0h-2.288v4.856h1.43V1.813h.01l.885 3.043h2.307V0h-1.441v3.053h-.01zM2.77 4.856l.412-1.362H1.65v-.41h1.657L3.7 1.779H1.65v-.395h2.164L4.232 0H0v4.856h2.77z"/><path fill-rule="evenodd" clip-rule="evenodd" d="M20.488 7.226h.004l-.017.117h.107c.005-.062.015-.124.029-.185l.24-1.156h-.11l-.107.497h-.003a.228.228 0 0 0-.2-.112c-.288 0-.353.306-.39.486-.047.22-.09.488.181.488a.332.332 0 0 0 .266-.135zm.09-.432l-.036.166h.001c-.048.229-.166.314-.273.314-.12 0-.195-.045-.12-.395v-.002c.047-.218.085-.399.285-.399.208 0 .155.257.143.315zm-12.496.55l.2-.936h.111l-.2.936h-.11zm.242-1.197l.03-.141h.137l-.03.14h-.137zm-4.14-.14h.368c.112 0 .292.014.226.324-.057.269-.17.391-.4.391H4.15l-.132.623h-.12l.285-1.338zm-.012.615h.22c.124 0 .217-.059.262-.269.05-.228-.047-.247-.154-.247h-.218l-.11.516zm.587.355l.05-.222c.025-.119.08-.366.4-.366.321 0 .27.247.245.366l-.047.222c-.05.244-.165.386-.405.386-.24 0-.295-.142-.243-.386zm.475.173a1.44 1.44 0 0 0 .08-.275c.06-.276.057-.397-.126-.397-.184 0-.238.121-.296.397a1.34 1.34 0 0 0-.036.275v.006c.006.03.02.118.163.118a.227.227 0 0 0 .215-.124zm.507-.743h-.118l.058.936h.14l.366-.8h.004l.035.8h.14l.457-.936H6.71l-.384.82h-.004l-.033-.82h-.137l-.373.82h-.004l-.035-.82zM6.93 6.9l-.015.073c-.028.13-.03.3.146.3a.246.246 0 0 0 .25-.214h.117c-.06.226-.2.304-.387.304-.161 0-.31-.066-.25-.35l.05-.23c.058-.271.197-.396.406-.396.323 0 .274.23.215.508v.002L6.93 6.9zm.442-.089c.044-.207.037-.332-.142-.332-.178 0-.237.125-.282.332h.424zm.498-.276h-.004l.027-.128h-.11l-.201.936h.112l.128-.6a.286.286 0 0 1 .313-.24l.024-.113a.365.365 0 0 0-.29.145zm.577.81h.112l.127-.587c.044-.21.16-.279.261-.279.13 0 .15.103.128.212l-.14.654h.113l.138-.66c.025-.122.039-.295-.194-.295a.35.35 0 0 0-.255.134h-.003l.024-.115h-.11l-.201.936zm1.544-.937h.108l-.02.08c-.01.042-.018.073-.024.105l-.169.788c-.043.206-.132.328-.4.328-.233 0-.245-.165-.217-.26h.11c-.03.108.036.171.141.171.204 0 .226-.104.279-.351l.01-.046h-.004a.32.32 0 0 1-.25.113c-.27 0-.24-.232-.195-.44.044-.204.05-.218.089-.303l.007-.015a.344.344 0 0 1 .3-.186.2.2 0 0 1 .203.132v.003l.032-.119zm-.509.45v.002c-.042.194-.083.388.12.388a.233.233 0 0 0 .19-.105c.044-.073.06-.115.119-.39.041-.197-.05-.271-.153-.271-.192-.003-.247.235-.276.377zm1.338-.85l-.285 1.337.382.001c.224 0 .369-.13.419-.372.035-.168.014-.286-.155-.322v-.004c.178-.047.228-.158.262-.32.05-.236-.04-.32-.25-.32h-.373zm.044 1.237h-.188l.115-.544h.24c.205 0 .206.162.18.28-.042.197-.15.264-.347.264zm.458-.912c-.031.151-.111.269-.282.269h-.228l.106-.496h.235c.095 0 .216.004.17.227zm.915.075l-.2.936h-.096l.022-.103h-.004a.355.355 0 0 1-.258.123c-.194 0-.218-.14-.185-.292l.14-.663h.112l-.137.644v.004c-.009.038-.046.218.109.218.15 0 .233-.14.247-.205l.14-.66.11-.002zm.048.66c-.045.196.016.296.216.296.177 0 .297-.089.337-.265.036-.168-.073-.228-.173-.283-.087-.048-.169-.093-.145-.201a.173.173 0 0 1 .171-.136c.125 0 .144.064.125.182h.11c.03-.143-.002-.27-.188-.27-.163 0-.295.06-.332.233-.034.164.07.223.17.28.088.05.17.097.147.212a.187.187 0 0 1-.195.165c-.142 0-.154-.085-.127-.213h-.116zm.703.277l.2-.936h.11l-.2.936h-.11zm.24-1.197l.031-.141h.137l-.03.14h-.137zm.124 1.197h.114l.126-.587c.045-.21.16-.279.261-.279.13 0 .151.103.127.212l-.138.654h.111l.139-.66c.026-.122.038-.295-.194-.295a.35.35 0 0 0-.254.134h-.004l.025-.115h-.112l-.2.936zM14.38 6.9l-.015.072c-.027.13-.029.3.148.3a.245.245 0 0 0 .25-.214h.118c-.063.226-.2.304-.388.304-.162 0-.309-.066-.25-.35l.05-.23c.058-.271.197-.396.406-.396.323 0 .274.232.215.51l-.534.004zm.442-.09c.045-.207.038-.332-.14-.332-.179 0-.238.125-.283.332h.423zm.22.257c-.043.196.017.296.217.296.175 0 .296-.089.331-.265.036-.168-.072-.228-.173-.283-.087-.048-.168-.093-.144-.201a.172.172 0 0 1 .171-.136c.125 0 .144.064.125.182h.109c.03-.143-.002-.27-.187-.27-.163 0-.295.06-.331.233-.035.164.07.223.169.28.087.05.17.097.147.212a.187.187 0 0 1-.194.165c-.144 0-.155-.085-.128-.213h-.112zm.926.296c-.202 0-.26-.1-.217-.296h.113c-.027.128-.015.213.127.213a.187.187 0 0 0 .195-.165c.024-.115-.06-.163-.147-.212-.1-.057-.204-.116-.17-.28.037-.172.169-.234.333-.234.185 0 .217.128.186.271h-.11c.02-.118 0-.182-.124-.182a.173.173 0 0 0-.172.136c-.023.108.058.153.146.2.1.056.209.116.173.284-.038.176-.158.265-.333.265zm1.8-1.356h-.16l-.524 1.183h-.005l-.018-1.183h-.127l.037 1.338h.15l.53-1.19h.003l.016 1.19h.155l.618-1.338h-.117L17.79 7.18h-.003l-.02-1.174zm.529.97l.05-.222c.025-.119.08-.366.4-.366s.27.247.245.366l-.047.222c-.052.244-.166.386-.405.386-.238 0-.295-.142-.243-.386zm.475.173a1.4 1.4 0 0 0 .08-.275c.06-.276.057-.397-.127-.397-.183 0-.237.121-.295.397-.022.09-.034.183-.037.275l.002.008c.006.031.021.116.162.116a.227.227 0 0 0 .215-.124zm.609-.616h-.004l.028-.128h-.11l-.201.936h.11l.13-.6a.287.287 0 0 1 .312-.24l.024-.113a.364.364 0 0 0-.29.145zm.221.81l.285-1.337h.111l-.284 1.338h-.111zm1.3-.937h.119l.035.82h.005l.371-.82h.138l.033.82h.004l.383-.82h.112l-.457.936h-.139l-.036-.8h-.003l-.368.8h-.138l-.059-.936zm1.34.001l-.2.936h.111l.2-.936h-.11zm.07-.401l-.028.14h.136l.03-.14h-.137zm.614 1.22h-.004a.332.332 0 0 1-.266.134c-.271 0-.229-.269-.183-.487.038-.18.104-.487.391-.487a.228.228 0 0 1 .203.112h.004l.105-.497h.111l-.245 1.152c-.014.06-.024.122-.027.185h-.109l.02-.113zm.05-.267l.035-.166v-.002c.012-.058.065-.314-.143-.314-.198 0-.237.18-.284.396l-.002.005c-.073.35 0 .395.121.395.107 0 .225-.085.274-.314h-.001zm.433.012l.015-.072.533-.003v-.004c.059-.277.107-.507-.214-.507-.21 0-.35.125-.408.396l-.05.23c-.058.284.09.35.25.35.188 0 .326-.078.388-.304h-.117a.246.246 0 0 1-.25.215c-.176 0-.175-.171-.147-.3zm.316-.494c.178 0 .185.125.14.332h-.423c.045-.207.105-.332.283-.332z"/></svg>
